static/img/kroki/34e77a4c76a61addb9090c6be2b131bf.svg

<?xml version="1.0" encoding="us-ascii" standalone="no"?><svg xmlns="http://www.w3.org/2000/svg" xmlns:xlink="http://www.w3.org/1999/xlink" contentStyleType="text/css" height="535px" preserveAspectRatio="none" style="width:302px;height:535px;" version="1.1" viewBox="0 0 302 535" width="302px" zoomAndPan="magnify"><defs/><g><!--class aws_resource--><g id="elem_aws_resource"><rect codeLine="23" fill="#3D176E" height="39.7891" id="aws_resource" rx="2.5" ry="2.5" style="stroke:#000D19;stroke-width:0.5;" width="155" x="73.5" y="167.79"/><ellipse cx="88.5" cy="187.6845" fill="#ADD1B2" rx="11" ry="11" style="stroke:#181818;stroke-width:1.0;"/><path d="M91.4688,193.3252 Q90.8906,193.622 90.25,193.7627 Q89.6094,193.9189 88.9063,193.9189 Q86.4063,193.9189 85.0781,192.2783 Q83.7656,190.622 83.7656,187.497 Q83.7656,184.372 85.0781,182.7158 Q86.4063,181.0595 88.9063,181.0595 Q89.6094,181.0595 90.25,181.2158 Q90.9063,181.372 91.4688,181.6689 L91.4688,184.3877 Q90.8438,183.8095 90.25,183.5439 Q89.6563,183.2627 89.0313,183.2627 Q87.6875,183.2627 87,184.3408 Q86.3125,185.4033 86.3125,187.497 Q86.3125,189.5908 87,190.6689 Q87.6875,191.7314 89.0313,191.7314 Q89.6563,191.7314 90.25,191.4658 Q90.8438,191.1845 91.4688,190.6064 L91.4688,193.3252 Z " fill="#000000"/><text fill="#D9B8FF" font-family="Helvetica" font-size="17" lengthAdjust="spacing" textLength="113" x="107.5" y="193.5698">aws_resource</text></g><!--class aws_sagemaker_auto_ml_job--><g id="elem_aws_sagemaker_auto_ml_job"><rect codeLine="26" fill="#3D176E" height="39.7891" id="aws_sagemaker_auto_ml_job" rx="2.5" ry="2.5" style="stroke:#000D19;stroke-width:0.5;" width="288" x="7" y="489.37"/><ellipse cx="22" cy="509.2645" fill="#ADD1B2" rx="11" ry="11" style="stroke:#181818;stroke-width:1.0;"/><path d="M24.9688,514.9052 Q24.3906,515.202 23.75,515.3427 Q23.1094,515.4989 22.4063,515.4989 Q19.9063,515.4989 18.5781,513.8583 Q17.2656,512.202 17.2656,509.077 Q17.2656,505.952 18.5781,504.2958 Q19.9063,502.6395 22.4063,502.6395 Q23.1094,502.6395 23.75,502.7958 Q24.4063,502.952 24.9688,503.2489 L24.9688,505.9677 Q24.3438,505.3895 23.75,505.1239 Q23.1563,504.8427 22.5313,504.8427 Q21.1875,504.8427 20.5,505.9208 Q19.8125,506.9833 19.8125,509.077 Q19.8125,511.1708 20.5,512.2489 Q21.1875,513.3114 22.5313,513.3114 Q23.1563,513.3114 23.75,513.0458 Q24.3438,512.7645 24.9688,512.1864 L24.9688,514.9052 Z " fill="#000000"/><text fill="#D9B8FF" font-family="Helvetica" font-size="17" lengthAdjust="spacing" textLength="246" x="41" y="515.1498">aws_sagemaker_auto_ml_job</text></g><!--class aws_sagemaker_job--><g id="elem_aws_sagemaker_job"><rect codeLine="29" fill="#3D176E" height="39.7891" id="aws_sagemaker_job" rx="2.5" ry="2.5" style="stroke:#000D19;stroke-width:0.5;" width="210" x="46" y="328.58"/><ellipse cx="61" cy="348.4745" fill="#ADD1B2" rx="11" ry="11" style="stroke:#181818;stroke-width:1.0;"/><path d="M63.9688,354.1152 Q63.3906,354.412 62.75,354.5527 Q62.1094,354.7089 61.4063,354.7089 Q58.9063,354.7089 57.5781,353.0683 Q56.2656,351.412 56.2656,348.287 Q56.2656,345.162 57.5781,343.5058 Q58.9063,341.8495 61.4063,341.8495 Q62.1094,341.8495 62.75,342.0058 Q63.4063,342.162 63.9688,342.4589 L63.9688,345.1777 Q63.3438,344.5995 62.75,344.3339 Q62.1563,344.0527 61.5313,344.0527 Q60.1875,344.0527 59.5,345.1308 Q58.8125,346.1933 58.8125,348.287 Q58.8125,350.3808 59.5,351.4589 Q60.1875,352.5214 61.5313,352.5214 Q62.1563,352.5214 62.75,352.2558 Q63.3438,351.9745 63.9688,351.3964 L63.9688,354.1152 Z " fill="#000000"/><text fill="#D9B8FF" font-family="Helvetica" font-size="17" lengthAdjust="spacing" textLength="168" x="80" y="354.3598">aws_sagemaker_job</text></g><!--class resource--><g id="elem_resource"><rect codeLine="32" fill="#3D176E" height="39.7891" id="resource" rx="2.5" ry="2.5" style="stroke:#000D19;stroke-width:0.5;" width="113" x="94.5" y="7"/><ellipse cx="109.5" cy="26.8945" fill="#ADD1B2" rx="11" ry="11" style="stroke:#181818;stroke-width:1.0;"/><path d="M112.4688,32.5352 Q111.8906,32.832 111.25,32.9727 Q110.6094,33.1289 109.9063,33.1289 Q107.4063,33.1289 106.0781,31.4883 Q104.7656,29.832 104.7656,26.707 Q104.7656,23.582 106.0781,21.9258 Q107.4063,20.2695 109.9063,20.2695 Q110.6094,20.2695 111.25,20.4258 Q111.9063,20.582 112.4688,20.8789 L112.4688,23.5977 Q111.8438,23.0195 111.25,22.7539 Q110.6563,22.4727 110.0313,22.4727 Q108.6875,22.4727 108,23.5508 Q107.3125,24.6133 107.3125,26.707 Q107.3125,28.8008 108,29.8789 Q108.6875,30.9414 110.0313,30.9414 Q110.6563,30.9414 111.25,30.6758 Q111.8438,30.3945 112.4688,29.8164 L112.4688,32.5352 Z " fill="#000000"/><text fill="#D9B8FF" font-family="Helvetica" font-size="17" lengthAdjust="spacing" textLength="71" x="128.5" y="32.7798">resource</text></g><!--reverse link resource to aws_resource--><g id="link_resource_aws_resource"><path codeLine="35" d="M151,65.05 C151,95.57 151,136.9 151,167.47 " fill="none" id="resource-backto-aws_resource" style="stroke:#FFAF37;stroke-width:2.0;"/><polygon fill="none" points="151,47.05,145,65.05,157,65.05,151,47.05" style="stroke:#FFAF37;stroke-width:2.0;"/></g><!--reverse link aws_sagemaker_job to aws_sagemaker_auto_ml_job--><g id="link_aws_sagemaker_job_aws_sagemaker_auto_ml_job"><path codeLine="36" d="M151,386.63 C151,417.15 151,458.48 151,489.04 " fill="none" id="aws_sagemaker_job-backto-aws_sagemaker_auto_ml_job" style="stroke:#FFAF37;stroke-width:2.0;"/><polygon fill="none" points="151,368.63,145,386.63,157,386.63,151,368.63" style="stroke:#FFAF37;stroke-width:2.0;"/></g><!--reverse link aws_resource to aws_sagemaker_job--><g id="link_aws_resource_aws_sagemaker_job"><path codeLine="37" d="M151,225.84 C151,256.36 151,297.69 151,328.25 " fill="none" id="aws_resource-backto-aws_sagemaker_job" style="stroke:#FFAF37;stroke-width:2.0;"/><polygon fill="none" points="151,207.84,145,225.84,157,225.84,151,207.84" style="stroke:#FFAF37;stroke-width:2.0;"/></g><!--SRC=[XP3BJiCm44Nt-GfBNKTAgI2jnAQDX61J8Se-ciJZr2Isex53L1x_3g5GdAIFfUSUtJdZhUJ8KDLknnIg3Ca6jfIw1WB5baIcJKnbY4s4036BX-6TqUuYi0Q5x1whLtGoXo7nl9LvgT5QTkL5AyZBWaoZ-RxU4MZx7Q5s7fLKOEtIEP9Puz2JuOjiBiIG79PEPdmQt-08CyIHVf4eYlXqCKGkhZfxzu7Oo3TaK__JriRXI7EqueSwQzaHdkJeqB_yfECZS2vrmQwzsTFUYJHIRxxP0ZTjHmkehB_6EYGqRbTZCheA5tCkugFmmoauoBklOz3QbD2QXd9axq7mwSqj5AYWH4gXSIPLLVfYijFG8Eot7bwt7s4OzjO6uvf_wAX3qBC-1dVG5m00]--></g></svg>

<svg xmlns="http://www.w3.org/2000/svg" width="302" height="535" viewBox="0 0 302 535"><rect width="155" height="39.789" x="73.5" y="167.79" fill="#3D176E" rx="2.5" ry="2.5" style="stroke:#000d19;stroke-width:.5"/><circle cx="88.5" cy="187.685" r="11" fill="#ADD1B2" style="stroke:#181818;stroke-width:1"/><path d="M91.469 193.325q-.578.297-1.219.438-.64.156-1.344.156-2.5 0-3.828-1.64-1.312-1.657-1.312-4.782t1.312-4.781q1.328-1.656 3.828-1.656.703 0 1.344.156.656.156 1.219.453v2.719q-.625-.578-1.219-.844-.594-.281-1.219-.281-1.344 0-2.031 1.078-.687 1.062-.687 3.156t.687 3.172q.688 1.062 2.031 1.062.625 0 1.219-.265.594-.281 1.219-.86z"/><text x="107.5" y="193.57" fill="#D9B8FF" font-family="Helvetica" font-size="17" textLength="113">aws_resource</text><rect width="288" height="39.789" x="7" y="489.37" fill="#3D176E" rx="2.5" ry="2.5" style="stroke:#000d19;stroke-width:.5"/><circle cx="22" cy="509.264" r="11" fill="#ADD1B2" style="stroke:#181818;stroke-width:1"/><path d="M24.969 514.905q-.578.297-1.219.438-.64.156-1.344.156-2.5 0-3.828-1.64-1.312-1.657-1.312-4.782t1.312-4.781q1.328-1.656 3.828-1.656.703 0 1.344.156.656.156 1.219.453v2.719q-.625-.579-1.219-.844-.594-.281-1.219-.281-1.343 0-2.031 1.078-.687 1.062-.687 3.156t.687 3.172q.688 1.062 2.031 1.062.625 0 1.219-.265.594-.282 1.219-.86z"/><text x="41" y="515.15" fill="#D9B8FF" font-family="Helvetica" font-size="17" textLength="246">aws_sagemaker_auto_ml_job</text><rect width="210" height="39.789" x="46" y="328.58" fill="#3D176E" rx="2.5" ry="2.5" style="stroke:#000d19;stroke-width:.5"/><circle cx="61" cy="348.474" r="11" fill="#ADD1B2" style="stroke:#181818;stroke-width:1"/><path d="M63.969 354.115q-.578.297-1.219.438-.64.156-1.344.156-2.5 0-3.828-1.64-1.312-1.657-1.312-4.782t1.312-4.781q1.328-1.656 3.828-1.656.703 0 1.344.156.656.156 1.219.453v2.719q-.625-.579-1.219-.844-.594-.281-1.219-.281-1.343 0-2.031 1.078-.687 1.062-.687 3.156t.687 3.172q.688 1.062 2.031 1.062.625 0 1.219-.265.594-.281 1.219-.86z"/><text x="80" y="354.36" fill="#D9B8FF" font-family="Helvetica" font-size="17" textLength="168">aws_sagemaker_job</text><rect width="113" height="39.789" x="94.5" y="7" fill="#3D176E" rx="2.5" ry="2.5" style="stroke:#000d19;stroke-width:.5"/><circle cx="109.5" cy="26.895" r="11" fill="#ADD1B2" style="stroke:#181818;stroke-width:1"/><path d="M112.469 32.535q-.578.297-1.219.438-.64.156-1.344.156-2.5 0-3.828-1.64-1.312-1.657-1.312-4.782t1.312-4.781q1.328-1.656 3.828-1.656.703 0 1.344.156.656.156 1.219.453v2.719q-.625-.578-1.219-.844-.594-.281-1.219-.281-1.344 0-2.031 1.078-.687 1.062-.687 3.156t.687 3.172q.688 1.062 2.031 1.062.625 0 1.219-.265.594-.281 1.219-.86z"/><text x="128.5" y="32.78" fill="#D9B8FF" font-family="Helvetica" font-size="17" textLength="71">resource</text><path fill="none" d="M151 65.05v102.42m0-120.42-6 18h12zm0 339.58v102.41m0-120.41-6 18h12zm0-142.79v102.41m0-120.41-6 18h12z" style="stroke:#ffaf37;stroke-width:2"/></svg>
